!!!OTL: 2058. Marias Wanderung.
!!!ODT: 1843
!!!ARE: Europa, Mitteleuropa, Deutschland, Fulda
!!!SCT: E2058
!!!TXL: @@DE
!!!YEM: Copyright 1995, estate of Helmut Schaffrath.
**kern	**text
*ICvox	*
*M4/4	*
*met(c)	*
*k[b-]	*
*F:	*
!LO:TX:a:t=	!
!LO:TX:a:t=Aus der Gegend von Fulda. 1843.	!
{4c	Ma-
=1	=1
4f	-ri-
4f	-a
4g	die
4cc	wollt
=2	=2
(4.a	wan-
8g)	.
4f}	-dern,
{4cc	wollt
=3	=3
4b-	al-
4b-	-le
4a	Land
4cc/	aus-
=4	=4
2g	-gehn
4r}	.
{4cc	und
=5	=5
4cc	ſu-
4a	-chen
8ccL	ih-
8b-J	.
4g	-ren
=6	=6
(<4.a	Sohn,
8b-/	.
4cc)}	.
{4a	und
=7	=7
4cc	ſu-
4a	-chen
8ccL	ih-
8b-J	.
4g	-ren
=8	=8
2f	Sohn.
4r}	.
==	==
!!!AGN: geistlich, Marien - Lied, Legende
!!!ONB: ESAC (Essen Associative Code) Database: ERK3
!!!AMT: simple quadruple
!!!AIN: vox
!!!EED: Helmut Schaffrath
!!!EEV: 1.0
!!!GTL: 4. Katholische Lieder: b) Marienlieder (Rufe und Legenden.)
!!!URL-scan: https://rosdok.uni-rostock.de/mcrviewer/recordIdentifier/rosdok_ppn745177999/iview2/phys_0760.iview2?x=113.01762814781455&y=449.43947215005755&scale=0.7014306698522891&rotation=0&layout=singlePageLayout
!!!ENC: Anna Maria Matuszewska
!!!EEV: 2025/13/01
*-	*-
